X:1
T:O Child of God
T:Ira David Sankey
T:O Child of God
T:Public Domain
T:Public Domain
C:Ira David Sankey
Z:Public Domain
%%score ( 1 2 ) ( 3 4 )
L:1/8
M:4/4
K:F
V:1 treble 
V:2 treble 
V:3 bass 
V:4 bass 
V:1
 [Fc]2 | [Fc]3 [FB] [FA]2 [EG]2 | F3 [A,C] [A,C]2 [CB]2 | [CA]2 [DG]2 [B,D]2 [CE]2 | [CF]6 [Fc]2 | %5
w: 1.~O|child of God, wait|pa- tient- ly when|thy path may be,|And let|
w: 2.~O|child of God, He|lov- eth thee, and|art all His own;|With gen-|
w: 3.~O|child of God, how|peace- ful- ly He|thy fears to rest,|And draws|
 [Fc]3 [FB] [FA]2 [EG]2 | F2- C-G/A/ C2 [CB]2 | [CA]2 [DG]2 [B,D]2 [CE]2 | [CF]6 [FA]2 | %9
w: thy faith lean trust-|ing- ly on Him * Who|for Thee; And though|the clouds|
w: tle hand He lead-|eth thee, thou dost * not|a- lone; And though|thou watch-|
w: thee up- ward ten-|der- ly, where dwell * the|and blest; And He|Who bend-|
 [FA]3 [EG] [EG]2 [Gc]2 | [Fc]3 [F=B] [FB]2 [Fe]2 | [Fe]2 [Fd]2 [FA]2 [F=B]2 | [Ec]6 [Ec]2 | %13
w: hang drear- i- ly|up- on the brow|of night, Yet in|the morn-|
w: est wear- i- ly|the long and storm-|y night, Yet in|the morn-|
w: eth si- lent- ly|a- bove the gloom|of night, Will take|thee home|
 [Fc]3 [FB] [FA]2 [CG]2 | F2- (FG/)A/ C2 [CB]2 | [CA]2 [DG]2 [B,D]2 [CE]2 | [CF]6 |] %17
w: ing joy will come,|and * * fill thy soul|||
w: ing joy will come,|and * * fill thy soul|||
w: where end- less joy|shall * * fill thy soul|||
V:2
 x2 | x8 | F3 x5 | x8 | x8 | x8 | x2 FC x4 | x8 | x8 | x8 | x8 | x8 | x8 | x8 | C4 C2 x2 | x8 | %16
w: ||dark||||* cares||||||||with light.||
w: ||thou||||* walk||||||||with light.||
w: ||calms||||* pure||||||||with light.||
 x6 |] %17
w: |
w: |
w: |
V:3
 [F,A,]2 | [F,A,]3 [F,D] [F,C]2 [F,B,]2 | [F,A,]3 F, F,2 [E,G,]2 | F,2 [B,,G,]2 [C,G,]2 [C,B,]2 | %4
 [F,A,]6 [F,A,]2 | [F,A,]3 [F,D] [F,C]2 [B,C]2 | [A,C]2 [F,A,]2 [E,G,]2 [C,E,]2 | %7
 F,2 [B,,G,]2 [C,G,]2 [C,B,]2 | [F,A,]6 [F,C]2 | [C,C]3 [C,C] [C,C]2 [E,C]2 | %10
 [G,D]3 [G,D] [G,D]2 [G,=B,]2 | [G,=B,]2 [G,B,]2 [G,C]2 [G,D]2 | [C,C]6 [C,B,]2 | %13
 [F,A,]3 [F,D] [F,C]2 [B,C]2 | [A,C]2 [F,A,]2 [E,G,]2 [C,E,]2 | F,2 [B,,G,]2 [C,G,]2 [C,B,]2 | %16
 [F,,A,]6 |] %17
V:4
 x2 | x8 | x3 F, F,2 x2 | F,2 x6 | x8 | x8 | x8 | x8 | x8 | x8 | x8 | x8 | x8 | x8 | x8 | x8 | %16
 x6 |] %17

